X:1
T:12 Bar Blues in C
M:4/4
L:1/4
K:C
| C E G A | C E G A | C E G A | C E G A |
| F A C D | F A C D | C E G A | C E G A |
| G B D E | F A C D | C E G A | G B D E |
